!!!!SEGMENT: pl-wtm--r-1690--005_stefani-jozef--oj-zoneczka-no-4.krn
!!!cenid: 18xx:2311
!!!COM: Stefani, Józef
!!!COM-rismID: pe30024097
!!!CDT: 1800/04/16-1876/03/19
!!!CNT: Polish
!!!OPR: Oj żoneczka
!!!OTL: No. 4
!!!OMV: 005
!!!PDT:
!!!AGN: Secular
!!!SMS-siglum: PL-Wtm
!!!SMS-shelfmark: R 1690
!!!SMS-shelfwork: 001-005 M
!!!SMS-variant:
!!!SMS-altvar:
!!!NIFC-rismSourceID: 1001114714
!!!NIFC-rismChildID: 1001114714
!!!NIFC-islandoraID: pl-wtm:28053
!!!URL-pdf-islandora: https://repozytorium.nifc.pl/islandora/object/pl-wtm%3A28053/datastream/PDF/view
!!!URL-scan: https://polish.musicsources.pl/pl/lokalizacje/galeria/rekopisy/6430 @EN{Scan on Polish Music Sources Website} @PL{Skany w portalu Dziedzictwo Muzyki Polskiej w otwartym dostępie}
!!!IIIF:
!!!ONB-nifc: UWAGA: skan 0010
!!!OMD: Allo.
!!!AIN: 1 clars 1 cor 1 flt 1 viola 3 violn 1 vox
!!!key:
**kern	**dynam	**kern	**dynam	**kern	**dynam	**kern	**dynam	**kern	**dynam	**kern	**dynam	**kern	**dynam	**kern	**text
*part8	*part8	*part7	*part7	*part6	*part6	*part5	*part5	*part4	*part4	*part3	*part3	*part2	*part2	*part1	*part1
*staff8	*	*staff7	*	*staff6	*	*staff5	*	*staff4	*	*staff3	*	*staff2	*	*staff1	*staff1
*Ivioln	*	*Iviola	*	*Ivioln	*	*Ivioln	*	*Icor	*	*Iclars	*	*Iflt	*	*Ivox	*
*I"V:C: C:B:	*	*I"Viola	*	*I"V II	*	*I"V I	*	*I"Corni D.	*	*I"Clar: in A.	*	*I"Fl:	*	*I"Spiew	*
*I'bc	*	*I'vla	*	*I'vl 2	*	*I'vl 1	*	*I'cor in D	*	*I'cl in A	*	*I'fl	*	*I'V	*
*clefF4	*	*clefC3	*	*clefG2	*	*clefG2	*	*clefG2	*	*clefG2	*	*clefG2	*	*clefG2	*
*	*	*	*	*	*	*	*	*ITrd6c10	*	*ITrd2c3	*	*	*	*	*
*k[f#c#]	*	*k[f#c#]	*	*k[f#c#]	*	*k[f#c#]	*	*k[f#c#]	*	*k[f#c#]	*	*k[f#c#]	*	*k[f#c#]	*
*D:	*	*D:	*	*D:	*	*D:	*	*D:	*	*D:	*	*D:	*	*D:	*
*M2/4	*	*M2/4	*	*M2/4	*	*M2/4	*	*M2/4	*	*M2/4	*	*M2/4	*	*M2/4	*
*	*	*	*	*	*	*	*	*	*	*^	*	*	*	*	*
!	!	!	!	!	!	!	!	!	!	!	!	!	!	!	!LO:TX:a:Bi:t=Lambert.:rj	!
!	!	!	!	!	!	!	!	!	!	!	!	!LO:DY:b:rj	!	!LO:DY:b:rj	!	!
4r	.	4r	.	4r	.	4r	.	4r	.	8dd/L	8dd\L	p	8ddd\L	p	4r	.
.	.	.	.	.	.	.	.	.	.	8ee/J	8cc#\J	.	8eee\J	.	.	.
=1	=1	=1	=1	=1	=1	=1	=1	=1	=1	=1	=1	=1	=1	=1	=1	=1
!	!	!	!	!	!	!	!	!	!LO:DY:b:rj	!	!	!	!	!	!	!
2r	.	2r	.	2r	.	2r	.	(>4f# 4d\	p	(>4ff#/	4dd\	.	(>4fff#\	.	2r	.
.	.	.	.	.	.	.	.	4e 4A\	.	4ee/	4cc#\	.	4eee\	.	.	.
=2	=2	=2	=2	=2	=2	=2	=2	=2	=2	=2	=2	=2	=2	=2	=2	=2
2r	.	2r	.	2r	.	2r	.	8d 8F#\)	.	8dd/)	8dd\	.	8ddd\)	.	2r	.
.	.	.	.	.	.	.	.	8r	.	8r	8ryy	.	8r	.	.	.
.	.	.	.	.	.	.	.	4r	.	8dd/L	8dd\L	.	8ddd\L	.	.	.
.	.	.	.	.	.	.	.	.	.	8ee/J	8cc#\J	.	8eee\J	.	.	.
=3	=3	=3	=3	=3	=3	=3	=3	=3	=3	=3	=3	=3	=3	=3	=3	=3
2r	.	2r	.	2r	.	2r	.	(>4f# 4d\	.	(>4ff#/	4dd\	.	(>4fff#\	.	2r	.
.	.	.	.	.	.	.	.	4e 4A\	.	4ee/	4cc#\	.	4eee\	.	.	.
=4	=4	=4	=4	=4	=4	=4	=4	=4	=4	=4	=4	=4	=4	=4	=4	=4
2r	.	2r	.	2r	.	2r	.	8d 8F#\)	.	8dd/)	8dd\	.	8ddd\)	.	4r	.
.	.	.	.	.	.	.	.	8r	.	8r	8ryy	.	8r	.	.	.
.	.	.	.	.	.	.	.	4r	.	4r	4ryy	.	4r	.	8a/	Kie-
.	.	.	.	.	.	.	.	.	.	.	.	.	.	.	8g/	-dy
*	*	*	*	*	*	*	*	*	*	*v	*v	*	*	*	*	*
=5	=5	=5	=5	=5	=5	=5	=5	=5	=5	=5	=5	=5	=5	=5	=5
!	!LO:DY:b:rj	!	!	!	!	!	!	!	!	!	!	!	!	!	!
8D\	p	8r	.	8r	.	8r	.	2r	.	2r	.	2r	.	8f#/	chcę
!	!	!	!LO:DY:b:rj	!	!LO:DY:b:rj	!	!LO:DY:b:rj	!	!	!	!	!	!	!	!
8r	.	8A/	p	8d/	p	8f#/	p	.	.	.	.	.	.	8a/	wyjść
8D\	.	8r	.	8r	.	8r	.	.	.	.	.	.	.	8g/	z Ko-
8r	.	8B/	.	8d/	.	8g/	.	.	.	.	.	.	.	8b/	-leż-
=6	=6	=6	=6	=6	=6	=6	=6	=6	=6	=6	=6	=6	=6	=6	=6
*rep	*	*	*	*rep	*	*	*	*	*	*	*	*	*	*	*
8D\	.	8r	.	8r	.	8r	.	2r	.	2r	.	2r	.	4a/	-ka-
8r	.	8A/	.	8d/	.	8f#/	.	.	.	.	.	.	.	.	.
8D\	.	8r	.	8r	.	8r	.	.	.	.	.	.	.	8a/	-mi
8r	.	8A/	.	8d/	.	8f#/	.	.	.	.	.	.	.	8a/	To
*Xrep	*	*	*	*Xrep	*	*	*	*	*	*	*	*	*	*	*
=7	=7	=7	=7	=7	=7	=7	=7	=7	=7	=7	=7	=7	=7	=7	=7
*	*	*rep	*	*	*	*	*	*	*	*	*	*	*	*	*
8C#/	.	8r	.	8r	.	8r	.	2r	.	2r	.	2r	.	8g/	żon-
8r	.	8A/	.	8e/	.	8g/	.	.	.	.	.	.	.	8a/	-ka
8D/	.	8r	.	8r	.	8r	.	.	.	.	.	.	.	8f#/	w do-
8r	.	8A/	.	8d/	.	8f#/	.	.	.	.	.	.	.	16a/	-mu
.	.	.	.	.	.	.	.	.	.	.	.	.	.	16a/	za-
*	*	*Xrep	*	*	*	*	*	*	*	*	*	*	*	*	*
=8	=8	=8	=8	=8	=8	=8	=8	=8	=8	=8	=8	=8	=8	=8	=8
8AA/	.	8r	.	8r	.	8r	.	2r	.	2r	.	2r	.	8e/	-sia-
8r	.	8A/	.	8c#/	.	8e/	.	.	.	.	.	.	.	8e/	-da
4r	.	4r	.	8f#/	.	8a/	.	.	.	.	.	.	.	8a/	Lu-
.	.	.	.	8e/	.	8g/	.	.	.	.	.	.	.	8g/	-bię
=9	=9	=9	=9	=9	=9	=9	=9	=9	=9	=9	=9	=9	=9	=9	=9
8D\	.	8r	.	8r	.	8r	.	2r	.	2r	.	2r	.	8f#/	byf-
8r	.	8A/	.	8d/	.	8f#/	.	.	.	.	.	.	.	8a/	-sztyk
8D\	.	8r	.	8r	.	8r	.	.	.	.	.	.	.	8g/	z Kar-
8r	.	8B/	.	8d/	.	8g/	.	.	.	.	.	.	.	8b/	-to-
=10	=10	=10	=10	=10	=10	=10	=10	=10	=10	=10	=10	=10	=10	=10	=10
8D\	.	8r	.	8r	.	8r	.	2r	.	2r	.	2r	.	8a/	-fla-
8r	.	8A/	.	8d/	.	8f#/	.	.	.	.	.	.	.	8a/	-mi
8BB/	.	8r	.	8r	.	8r	.	.	.	.	.	.	.	8dd\	O-
8r	.	8B/	.	8d/	.	8f#/	.	.	.	.	.	.	.	8b\	-na
=11	=11	=11	=11	=11	=11	=11	=11	=11	=11	=11	=11	=11	=11	=11	=11
8E\	.	8r	.	8r	.	8r	.	4r	.	4r	.	4r	.	8a/	z chrza-
8r	.	8c#\	.	8e/	.	8a/	.	.	.	.	.	.	.	8a/	-nem
!!LO:LB:g=original
8E\	.	8r	.	8r	.	8r	.	4r	.	4r	.	4r	.	8b/	tyl-
8r	.	8B/	.	8d/	.	8g#X/	.	.	.	.	.	.	.	8g#X/	-ko
=12	=12	=12	=12	=12	=12	=12	=12	=12	=12	=12	=12	=12	=12	=12	=12
8AA/	.	8r	.	8r	.	8r	.	2r	.	2r	.	2r	.	8b/	ja-
8r	.	8A/	.	8c#/	.	8a/	.	.	.	.	.	.	.	8a/	-da
8A\	.	8r	.	8r	.	8r	.	.	.	.	.	.	.	8a/	Wresz-
8r	.	8c#\	.	8e/	.	8a/	.	.	.	.	.	.	.	8a/	-cie
=13	=13	=13	=13	=13	=13	=13	=13	=13	=13	=13	=13	=13	=13	=13	=13
8F#\	.	8r	.	8r	.	8r	.	2r	.	2r	.	2r	.	8a#X/	Sy-
8r	.	8c#\	.	8e/	.	8a#X/	.	.	.	.	.	.	.	8a#/	-na,
8F#\	.	8r	.	8r	.	8r	.	.	.	.	.	.	.	8g#X/	mieć
8r	.	8c#\	.	8e/	.	8a#/	.	.	.	.	.	.	.	8a#/	myśl
=14	=14	=14	=14	=14	=14	=14	=14	=14	=14	=14	=14	=14	=14	=14	=14
8BB/	.	8r	.	8r	.	8r	.	2r	.	2r	.	2r	.	8b/	by-
8r	.	8B/	.	8d/	.	8b\	.	.	.	.	.	.	.	8f#/	-ła
8BB/	.	8r	.	8r	.	8r	.	.	.	.	.	.	.	8b/	I
8r	.	8d\	.	8f#/	.	8b\	.	.	.	.	.	.	.	8b/	cel
=15	=15	=15	=15	=15	=15	=15	=15	=15	=15	=15	=15	=15	=15	=15	=15
8AA#X/	.	8r	.	8r	.	8r	.	2r	.	2r	.	2r	.	8cc#\	mo-
8r	.	8e\	.	8f#/	.	8cc#\	.	.	.	.	.	.	.	8cc#\	-je-
8AA#/	.	8r	.	8r	.	8r	.	.	.	.	.	.	.	8b\	-go
8r	.	8e\	.	8f#/	.	8cc#\	.	.	.	.	.	.	.	8cc#\	mał-
=16	=16	=16	=16	=16	=16	=16	=16	=16	=16	=16	=16	=16	=16	=16	=16
8BB/	.	8r	.	8r	.	8r	.	2r;>	.	2r;>	.	2r;>	.	8dd\	-żeń-
8r;>	.	16d\	.	16f#/	.	16b\	.	.	.	.	.	.	.	16b\	-stwa
.	.	16r;>	.	16r;>	.	16r;>	.	.	.	.	.	.	.	16r;>	.
8C#/	.	8A/L	.	8e/L	.	8an/L	.	.	.	.	.	.	.	8an/	Cór-
8r	.	8A/J	.	8e/J	.	8g#X/J	.	.	.	.	.	.	.	8g#X/	-kę
=17	=17	=17	=17	=17	=17	=17	=17	=17	=17	=17	=17	=17	=17	=17	=17
8D/	.	8r	.	8r	.	8r	.	2r	.	2r	.	2r	.	8f#/	mi
8r	.	8A/	.	8d/	.	8f#/	.	.	.	.	.	.	.	8a/	na
8D/	.	8r	.	8r	.	8r	.	.	.	.	.	.	.	8g/	świat
8r	.	8B/	.	8d/	.	8g/	.	.	.	.	.	.	.	8b/	po-
=18	=18	=18	=18	=18	=18	=18	=18	=18	=18	=18	=18	=18	=18	=18	=18
8D/	.	8r	.	8r	.	8r	.	2r	.	2r	.	2r	.	8a/	-wi-
8r	.	8A/	.	8d/	.	8f#/	.	.	.	.	.	.	.	8a/	-ła
8GG/	.	8r	.	8r	.	8r	.	.	.	.	.	.	.	8dd\	tyl-
8r	.	8B/	.	8d/	.	8g/	.	.	.	.	.	.	.	8b\	-ko
=19	=19	=19	=19	=19	=19	=19	=19	=19	=19	=19	=19	=19	=19	=19	=19
8AA/	.	8r	.	8r	.	8r	.	2r	.	2r	.	2r	.	8a/	przez
8r	.	8A/	.	8d/	.	8f#/	.	.	.	.	.	.	.	8f#/	duch
8AA/	.	8r	.	8r	.	8r	.	.	.	.	.	.	.	8g/	sprze-
8r	.	8B/	.	8c#/	.	8e/	.	.	.	.	.	.	.	8e/	-ci-
=20	=20	=20	=20	=20	=20	=20	=20	=20	=20	=20	=20	=20	=20	=20	=20
8D\	.	8r	.	8r	.	8r	.	4r	.	4r	.	4r	.	8g/	-wień-
8r	.	8A/	.	8d/	.	8f#/	.	.	.	.	.	.	.	8f#/	-stwa
!!LO:PB:g=original
8GG/	.	8r	.	8r	.	8r	.	4r	.	4r	.	4r	.	8dd\	Tyl-
8r	.	8B/	.	8d/	.	8g/	.	.	.	.	.	.	.	8g/	-ko
=21	=21	=21	=21	=21	=21	=21	=21	=21	=21	=21	=21	=21	=21	=21	=21
8AA/	.	8r	.	8r	.	8r	.	2r	.	2r	.	2r	.	8f#/	przez
8r	.	8A/	.	8d/	.	8f#/	.	.	.	.	.	.	.	8d/	duch
8AA/	.	8r	.	8r	.	8r	.	.	.	.	.	.	.	8g/	sprze-
8r	.	8A/	.	8c#/	.	8e/	.	.	.	.	.	.	.	8e/	-ci-
=22	=22	=22	=22	=22	=22	=22	=22	=22	=22	=22	=22	=22	=22	=22	=22
8D/	.	8r	.	8r	.	8r	.	4r	.	4r	.	4r	.	8d/	-wień-
8r	.	8d\	.	8d/	.	8d/	.	.	.	.	.	.	.	8d/	-stwa
!	!	!	!	!	!	!	!	!	!LO:DY:b:rj	!	!LO:DY:b:rj	!	!LO:DY:b:rj	!	!
4r	.	4r	.	4r	.	4r	.	(>4e 4A\	p	(>4cc# 4a\	p	(>4aa\	p	4r	.
=23	=23	=23	=23	=23	=23	=23	=23	=23	=23	=23	=23	=23	=23	=23	=23
2r	.	2r	.	2r	.	2r	.	4f# 4d\	.	4dd 4a\	.	4ff#\	.	2r	.
.	.	.	.	.	.	.	.	4e 4A\	.	4cc# 4a\	.	4ee\	.	.	.
=24	=24	=24	=24	=24	=24	=24	=24	=24	=24	=24	=24	=24	=24	=24	=24
4r	.	4r	.	4r	.	4r	.	8d 8F#\)	.	8dd 8a\)	.	8ff#\)	.	2r	.
.	.	.	.	.	.	.	.	8r	.	8r	.	8r	.	.	.
!	!LO:DY:b:rj	!	!LO:DY:b:rj	!	!LO:DY:b:rj	!	!LO:DY:b:rj	!	!	!	!	!	!	!	!
4AA/	p	(<4E/	p	(<4c#/	p	(<4a/	p	4r	.	4r	.	4r	.	.	.
=25	=25	=25	=25	=25	=25	=25	=25	=25	=25	=25	=25	=25	=25	=25	=25
4D/	.	4F#/	.	4d/	.	4f#/	.	2r	.	2r	.	2r	.	2r	.
4AA/	.	4A/)	.	4c#/	.	4e/	.	.	.	.	.	.	.	.	.
=26	=26	=26	=26	=26	=26	=26	=26	=26	=26	=26	=26	=26	=26	=26	=26
8D\	.	8F#/	.	8d/)	.	8d/)	.	4r	.	4r	.	4r	.	2r	.
8r	.	8r	.	8r	.	8r	.	.	.	.	.	.	.	.	.
!	!LO:DY:b:rj	!	!LO:DY:b:rj	!	!LO:DY:b:rj	!	!LO:DY:b:rj	!	!LO:DY:b:rj	!	!LO:DY:b:rj	!	!LO:DY:b:rj	!	!
4D\	f	4d 4F#\	f	4f# 4A/	f	4dd 4f#\	f	4f# 4d\	f	4ff# 4a\	f	4ddd\	f	.	.
=27	=27	=27	=27	=27	=27	=27	=27	=27	=27	=27	=27	=27	=27	=27	=27
4D\	.	4d 4F#\	.	4f# 4A/	.	4dd 4f#\	.	4f# 4d\	.	4ff# 4a\	.	4ddd\	.	2r	.
4r	.	4r	.	4r	.	4r	.	4r	.	4r	.	4r	.	.	.
==	==	==	==	==	==	==	==	==	==	==	==	==	==	==	==
*-	*-	*-	*-	*-	*-	*-	*-	*-	*-	*-	*-	*-	*-	*-	*-
!!!system-decoration: [(s1,s2,s3,s4,s5,s6,s7,s8)]
!!!RDF**kern: > = above
!!!RDF**kern: < = below
!!!RDF**kern: | = vertical stroke
!!!RDF**kern: N = linked
!!!RDF**kern: i = editorial accidental
!!!EED: Wojciech Jakubiak-Danek
!!!EEV: 2021-06-09
!!!ENC: Anastazja Marusiak
!!!END: 2021-06-02
!!!YEC: Copyright 2022 Narodowy Instytut Fryderyka Chopina (https://polishscores.org)
!!!YEM: License CC-BY-4.0 (https://creativecommons.org/licenses/by/4.0)
